X:159
T: SO VIEL DER MAI AUCH BLUEMLEIN BEUT
N: B0190
O: Europa, Mitteleuropa, Deutschland
R: Natur - Lied, Fruehling
M: 3/4
L: 1/16
K: F
A2 | A6G2A2B2 | d3cc6
A2 | G6A2B2c2 | B4A4z2
A2 | A3BA6A2 | A3BA6
A2 | d3=BG6G2 | G3cc6
B2 | A6G2A2B2 | d3cc4
A2F2 | G8A2B2 | A8
C4 | A6G2A2B2 | c3dc4
A2F2 | c8B2G2 | F8z2

